public/assets/images/icons/music.svg

<svg width="120" height="120" viewBox="0 0 120 120" fill="none" xmlns="http://www.w3.org/2000/svg">
<path d="M45.4757 36.247V54.9598V76.4745C42.6538 74.3109 39.1879 72.9738 35.3502 72.9738C26.1941 72.9738 18.751 80.3985 18.751 89.476C18.751 98.5536 26.1941 106.025 35.3502 106.025C44.5063 106.025 51.9494 98.6006 51.9494 89.476V24.0652C47.8925 26.6252 45.4757 30.9859 45.4757 36.247Z" fill="#E6C3E6"/>
<path d="M101.249 38.3902V28.8826C101.249 23.0639 99.6224 18.8443 96.3225 16.3582C95.8511 15.9886 95.3465 15.6728 94.822 15.3906V40.2447V67.8402C92.0001 65.6161 88.5342 64.2723 84.65 64.2723C75.5403 64.2723 68.0508 71.7373 68.0508 80.8753C68.0508 90.0133 75.5403 97.5253 84.65 97.5253C93.7596 97.5253 101.249 90.0604 101.249 80.8753V38.3969V38.3902Z" fill="#E6C3E6"/>
<foreignObject x="15.4717" y="-16.0251" width="115.773" height="100.984"><div xmlns="http://www.w3.org/1999/xhtml" style="backdrop-filter:blur(15px);clip-path:url(#bgblur_0_911_3225_clip_path);height:100%;width:100%"></div></foreignObject><g data-figma-bg-blur-radius="30">
<path d="M101.245 38.9205L45.4717 54.9591V36.2463C45.4717 29.3525 49.6082 24.0041 56.1616 22.2235L83.0257 14.8123C88.4636 13.3139 93.0649 13.8246 96.3183 16.3577C99.6182 18.8438 101.245 23.0634 101.245 28.8822V38.9205Z" fill="url(#paint0_linear_911_3225)" fill-opacity="0.3"/>
<path d="M83.1582 15.2942C88.3402 13.8663 92.6492 14.3194 95.7178 16.5325L96.0107 16.7522L96.0176 16.7571C99.1436 19.1122 100.745 23.1478 100.745 28.8821V38.5432L45.9717 54.2942V36.2463C45.9717 29.7868 49.7116 24.7506 55.7061 22.8772L56.293 22.7063L56.2949 22.7053L83.1582 15.2942Z" stroke="url(#paint1_linear_911_3225)" stroke-opacity="0.42"/>
</g>
<defs>
<clipPath id="bgblur_0_911_3225_clip_path" transform="translate(-15.4717 16.0251)"><path d="M101.245 38.9205L45.4717 54.9591V36.2463C45.4717 29.3525 49.6082 24.0041 56.1616 22.2235L83.0257 14.8123C88.4636 13.3139 93.0649 13.8246 96.3183 16.3577C99.6182 18.8438 101.245 23.0634 101.245 28.8822V38.9205Z"/>
</clipPath><linearGradient id="paint0_linear_911_3225" x1="73.3583" y1="13.9749" x2="73.3583" y2="54.9591" gradientUnits="userSpaceOnUse">
<stop offset="0.025" stop-color="#DE5AFF" stop-opacity="0.9"/>
<stop offset="0.495" stop-color="#FF56FC" stop-opacity="0.96"/>
<stop offset="1" stop-color="#E44EFF" stop-opacity="0.9"/>
</linearGradient>
<linearGradient id="paint1_linear_911_3225" x1="53.4981" y1="12.5111" x2="96.4695" y2="46.654" gradientUnits="userSpaceOnUse">
<stop stop-color="#FAE7FF" stop-opacity="0.52"/>
<stop offset="0.473958" stop-color="#FF56FC" stop-opacity="0.96"/>
<stop offset="0.661667" stop-color="#F6B4FF" stop-opacity="0.1"/>
</linearGradient>
</defs>
</svg>

<svg xmlns="http://www.w3.org/2000/svg" width="120" height="120" fill="none"><path fill="#E6C3E6" d="M45.476 36.247v40.228c-2.822-2.164-6.288-3.501-10.126-3.501-9.156 0-16.599 7.424-16.599 16.502s7.443 16.549 16.6 16.549c9.155 0 16.598-7.424 16.598-16.549v-65.41c-4.056 2.56-6.473 6.92-6.473 12.181M101.249 38.39v-9.507c0-5.82-1.627-10.039-4.926-12.525-.472-.37-.976-.685-1.501-.967V67.84C92 65.616 88.534 64.272 84.65 64.272c-9.11 0-16.6 7.465-16.6 16.603s7.49 16.65 16.6 16.65 16.599-7.465 16.599-16.65V38.39"/><foreignObject width="115.773" height="100.984" x="15.472" y="-16.025"><div xmlns="http://www.w3.org/1999/xhtml" style="backdrop-filter:blur(15px);clip-path:url(#a);height:100%;width:100%"/></foreignObject><g data-figma-bg-blur-radius="30"><path fill="url(#b)" fill-opacity=".3" d="M101.245 38.92 45.472 54.96V36.245c0-6.894 4.136-12.242 10.69-14.022l26.864-7.412c5.438-1.498 10.039-.987 13.292 1.546 3.3 2.486 4.927 6.705 4.927 12.524z"/><path stroke="url(#c)" stroke-opacity=".42" d="M83.158 15.294c5.182-1.428 9.491-.975 12.56 1.238l.293.22.007.005c3.126 2.355 4.727 6.39 4.727 12.125v9.661L45.972 54.294V36.246c0-6.46 3.74-11.495 9.734-13.369l.587-.17.002-.002z"/></g><defs><linearGradient id="b" x1="73.358" x2="73.358" y1="13.975" y2="54.959" gradientUnits="userSpaceOnUse"><stop offset=".025" stop-color="#DE5AFF" stop-opacity=".9"/><stop offset=".495" stop-color="#FF56FC" stop-opacity=".96"/><stop offset="1" stop-color="#E44EFF" stop-opacity=".9"/></linearGradient><linearGradient id="c" x1="53.498" x2="96.469" y1="12.511" y2="46.654" gradientUnits="userSpaceOnUse"><stop stop-color="#FAE7FF" stop-opacity=".52"/><stop offset=".474" stop-color="#FF56FC" stop-opacity=".96"/><stop offset=".662" stop-color="#F6B4FF" stop-opacity=".1"/></linearGradient><clipPath id="a" transform="translate(-15.472 16.025)"><path d="M101.245 38.92 45.472 54.96V36.245c0-6.894 4.136-12.242 10.69-14.022l26.864-7.412c5.438-1.498 10.039-.987 13.292 1.546 3.3 2.486 4.927 6.705 4.927 12.524z"/></clipPath></defs></svg>
